build/img/footer-logo.svg

<svg width="75" height="75" viewBox="0 0 75 75" fill="none" xmlns="http://www.w3.org/2000/svg">
<path fill-rule="evenodd" clip-rule="evenodd" d="M37.5 75C58.2107 75 75 58.2107 75 37.5C75 16.7893 58.2107 0 37.5 0C16.7893 0 0 16.7893 0 37.5C0 58.2107 16.7893 75 37.5 75ZM41 65H33V66H41V65ZM33 7.5L33.5 18H41.5L42 7.5L39.5 12L37.5 8C37 9.16667 35.5 12 35.5 12L33 7.5ZM13.4473 35.1162H16.1104C16.6729 35.1162 17.0918 35.0137 17.3672 34.8086C17.6426 34.5977 17.7803 34.2812 17.7803 33.8594C17.7803 33.4668 17.6514 33.1709 17.3936 32.9717C17.1357 32.7666 16.7549 32.6641 16.251 32.6641H13.4473V35.1162ZM13.4473 40.4248H15.9521C16.7432 40.4248 17.2969 40.3164 17.6133 40.0996C17.9297 39.877 18.0879 39.5049 18.0879 38.9834C18.0879 38.5146 17.9355 38.1631 17.6309 37.9287C17.332 37.6885 16.8838 37.5684 16.2861 37.5684H13.4473V40.4248ZM10.2744 43V30.0537H16.5586C18.0645 30.0537 19.1748 30.3262 19.8896 30.8711C20.6104 31.4102 20.9707 32.2422 20.9707 33.3672C20.9707 34.0645 20.8096 34.6416 20.4873 35.0986C20.1709 35.5498 19.6846 35.8984 19.0283 36.1445C19.7783 36.3379 20.3525 36.6865 20.751 37.1904C21.1494 37.6885 21.3486 38.3096 21.3486 39.0537C21.3486 39.7803 21.1816 40.4365 20.8477 41.0225C20.5195 41.6084 20.0566 42.0625 19.459 42.3848C19.0547 42.6074 18.5654 42.7656 17.9912 42.8594C17.417 42.9531 16.5322 43 15.3369 43H10.2744ZM23.4844 43V30.0537H26.7891V43H23.4844ZM35.165 35.5996H32.6953V32.6465H35.2529C35.8799 32.6465 36.3457 32.7637 36.6504 32.998C36.9551 33.2266 37.1074 33.5781 37.1074 34.0527C37.1074 34.5918 36.9492 34.9844 36.6328 35.2305C36.3223 35.4766 35.833 35.5996 35.165 35.5996ZM29.3994 30.0537V43H32.6953V38.1572H34.9102C35.4844 38.1572 35.915 38.2744 36.2021 38.5088C36.4893 38.7432 36.6592 39.1123 36.7119 39.6162C36.7354 39.8213 36.7588 40.3223 36.7822 41.1191C36.8057 41.916 36.9023 42.543 37.0723 43H40.5439V42.5518C40.2275 42.3877 40.0488 41.7842 40.0078 40.7412C39.9902 40.2959 39.9727 39.9414 39.9551 39.6777C39.9199 38.7402 39.7852 38.0869 39.5508 37.7178C39.3164 37.3428 38.915 37.0469 38.3467 36.8301C39.0439 36.4785 39.5566 36.0449 39.8848 35.5293C40.2188 35.0078 40.3857 34.3838 40.3857 33.6572C40.3857 32.4268 39.9961 31.5186 39.2168 30.9326C38.4434 30.3467 37.2363 30.0537 35.5957 30.0537H29.3994ZM42.6357 43V30.0537H52.4707V32.708H45.9492V34.9932H51.9082V37.5859H45.9492V40.3545H52.6816V43H42.6357ZM53.4902 30.0537L57.4365 36.3555L53.2617 43H57.0586L59.2559 39.2383L61.4268 43H65.25L61.0312 36.3555L65.0127 30.0537H61.2334L59.2559 33.5166L57.2695 30.0537H53.4902Z" fill="white"/>
</svg>

<svg width="75" height="75" fill="none" xmlns="http://www.w3.org/2000/svg"><path fill-rule="evenodd" clip-rule="evenodd" d="M37.5 75C58.21 75 75 58.21 75 37.5S58.21 0 37.5 0 0 16.79 0 37.5 16.79 75 37.5 75zM41 65h-8v1h8v-1zM33 7.5l.5 10.5h8L42 7.5 39.5 12l-2-4c-.5 1.167-2 4-2 4L33 7.5zM13.447 35.116h2.663c.563 0 .982-.102 1.257-.307.276-.211.413-.528.413-.95 0-.392-.129-.688-.386-.887-.258-.205-.64-.308-1.143-.308h-2.804v2.452zm0 5.309h2.505c.791 0 1.345-.109 1.661-.325.317-.223.475-.595.475-1.117 0-.468-.152-.82-.457-1.054-.299-.24-.747-.36-1.345-.36h-2.839v2.856zM10.274 43V30.054h6.285c1.505 0 2.616.272 3.33.817.721.54 1.082 1.371 1.082 2.496 0 .698-.161 1.275-.484 1.732-.316.45-.802.8-1.459 1.046.75.193 1.325.541 1.723 1.045.398.498.598 1.12.598 1.864a3.9 3.9 0 0 1-.501 1.968 3.418 3.418 0 0 1-1.389 1.363c-.404.222-.894.38-1.468.474-.574.094-1.459.141-2.654.141h-5.063zm13.21 0V30.054h3.305V43h-3.305zm11.681-7.4h-2.47v-2.953h2.558c.627 0 1.093.117 1.397.351.305.229.457.58.457 1.055 0 .539-.158.931-.474 1.178-.31.246-.8.369-1.468.369zm-5.766-5.546V43h3.296v-4.843h2.215c.574 0 1.005.117 1.292.352.287.234.457.603.51 1.107.023.205.047.706.07 1.503.024.797.12 1.424.29 1.881h3.472v-.448c-.316-.164-.495-.768-.536-1.81-.018-.446-.035-.8-.053-1.064-.035-.938-.17-1.591-.404-1.96-.235-.375-.636-.671-1.204-.888.697-.352 1.21-.785 1.538-1.3.334-.522.5-1.146.5-1.873 0-1.23-.389-2.138-1.168-2.724-.774-.586-1.98-.88-3.621-.88h-6.197zM42.636 43V30.054h9.835v2.654h-6.522v2.285h5.96v2.593h-5.96v2.769h6.733V43H42.636zM53.49 30.054l3.947 6.302L53.262 43h3.797l2.197-3.762L61.426 43h3.824l-4.219-6.645 3.982-6.301h-3.78l-1.977 3.463-1.986-3.463h-3.78z" fill="#fff"/></svg>
